X:210
T:Lemmie Brazil's Hornpipe #1
R:
M:4/4
K:D
(3ABc | d>A F>E D>F A>d | B>A G>A B2 c>B |
A>d c>B A>G F>E |D>F A>B A2 (3ABc |
d>A F>E D>F A>d | B>A G>A B2 c>B |
A>d c>B A>G F>E | D2 F2 D2 :|
z2 | (3FAF D>E F4 | (3GBG E>F G>A B>c |
d2 c>B A>F D>A | B2 A2 E4 |
(3FAF D>E F4 | (3GBG E>F G>A B>c |
d2 c>B A>F D>F | E2 C2 D2 :|
